kueku.co.id-dicsubpro-webdasar/assets/images/email.svg

<svg id="Capa_1" enable-background="new 0 0 511.996 511.996" height="512" viewBox="0 0 511.996 511.996" width="512" xmlns="http://www.w3.org/2000/svg"><path d="m230.9 253.371c13.369 8.913 36.827 8.914 50.199-.001.002-.001.005-.003.007-.004l227.865-151.911c-7.474-21.616-28.018-37.188-52.142-37.188h-401.663c-24.125 0-44.668 15.572-52.143 37.188l227.87 151.912c.003.002.005.002.007.004z"/><path d="m297.746 278.328c-.003.002-.005.004-.007.005-11.702 7.801-26.724 11.702-41.741 11.702-15.02 0-30.036-3.9-41.739-11.703-.002-.001-.003-.002-.005-.003l-214.254-142.835v257.072c0 30.417 24.747 55.163 55.166 55.163h401.666c30.418 0 55.164-24.746 55.164-55.163v-257.072z"/></svg>

<svg width="512" height="512" viewBox="0 0 512 512" fill="none" xmlns="http://www.w3.org/2000/svg">
<g clip-path="url(#clip0)">
<path d="M230.902 253.372C244.271 262.286 267.729 262.287 281.101 253.371C281.103 253.37 281.106 253.368 281.108 253.367L508.975 101.455C501.501 79.8391 480.957 64.267 456.833 64.267H55.1664C31.0412 64.267 10.498 79.8391 3.02295 101.455L230.895 253.368C230.898 253.37 230.9 253.37 230.902 253.372Z" fill="#FD7530"/>
<path d="M297.748 278.33C297.745 278.332 297.743 278.334 297.741 278.335C286.039 286.136 271.017 290.037 256 290.037C240.98 290.037 225.964 286.137 214.261 278.334C214.259 278.333 214.258 278.332 214.256 278.331L0 135.495V392.569C0 422.986 24.7472 447.733 55.1664 447.733H456.836C487.254 447.733 512 422.986 512 392.569V135.495L297.748 278.33Z" fill="#FD7530"/>
</g>
<defs>
<clipPath id="clip0">
<rect width="512" height="512" fill="white"/>
</clipPath>
</defs>
</svg>
